img/ui-arrow-expand-3.svg

<svg fill="none" height="21" viewBox="0 0 22 21" width="22" xmlns="http://www.w3.org/2000/svg"><g fill="#bbb"><path d="m.849611 20.1538c0 .4142.335789.75.749999.75h6.74999c.41421 0 .74999-.3358.74999-.75s-.33578-.75-.74999-.75h-5.99999v-6c0-.4142-.33579-.75-.75-.75s-.749999.3358-.749999.75zm8.943119-7.1325c.29287-.2929.29287-.7677 0-1.0606-.29289-.2929-.76776-.2929-1.06065 0zm-7.66279 7.6628 7.66279-7.6628-1.06065-1.0606-7.6628 7.6628z"/><path d="m21.502 1c0-.414213-.3358-.749998-.75-.749998h-6.75c-.4142 0-.75.335785-.75.749998 0 .41421.3358.75.75.75h6v5.99999c0 .41421.3357.74999.75.74999.4142 0 .75-.33578.75-.74999zm-8.9432 7.13247c-.2929.29289-.2929.76776 0 1.06065.2929.2929.7678.2929 1.0607 0zm7.6628-7.662799-7.6628 7.662799 1.0607 1.06065 7.6628-7.66279z"/></g></svg>

<svg width="22" height="21" viewBox="0 0 22 21" fill="none" xmlns="http://www.w3.org/2000/svg">
<path d="M0.849611 20.1538C0.849611 20.568 1.1854 20.9038 1.59961 20.9038H8.3496C8.76381 20.9038 9.09959 20.568 9.09959 20.1538C9.09959 19.7396 8.76381 19.4038 8.3496 19.4038H2.34961L2.34961 13.4038C2.34961 12.9896 2.01382 12.6538 1.59961 12.6538C1.1854 12.6538 0.849611 12.9896 0.849611 13.4038L0.849611 20.1538ZM9.79273 13.0213C10.0856 12.7284 10.0856 12.2536 9.79273 11.9607C9.49984 11.6678 9.02497 11.6678 8.73208 11.9607L9.79273 13.0213ZM2.12994 20.6841L9.79273 13.0213L8.73208 11.9607L1.06928 19.6235L2.12994 20.6841Z" fill="#BBBBBB"/>
<path d="M21.502 1C21.502 0.585787 21.1662 0.250002 20.752 0.250002L14.002 0.250002C13.5878 0.250002 13.252 0.585787 13.252 1C13.252 1.41421 13.5878 1.75 14.002 1.75L20.002 1.75V7.74999C20.002 8.1642 20.3377 8.49998 20.752 8.49998C21.1662 8.49998 21.502 8.1642 21.502 7.74999V1ZM12.5588 8.13247C12.2659 8.42536 12.2659 8.90023 12.5588 9.19312C12.8517 9.48602 13.3266 9.48602 13.6195 9.19312L12.5588 8.13247ZM20.2216 0.469671L12.5588 8.13247L13.6195 9.19312L21.2823 1.53033L20.2216 0.469671Z" fill="#BBBBBB"/>
</svg>
